src/status/24/camera-on.svg

<svg width="24" height="24" version="1.1" viewBox="0 0 24 24" xmlns="http://www.w3.org/2000/svg">
 <path d="m12 4.0898a7.9107 7.9107 0 0 0-7.9102 7.9102 7.9107 7.9107 0 0 0 7.9102 7.9102 7.9107 7.9107 0 0 0 7.9102-7.9102 7.9107 7.9107 0 0 0-7.9102-7.9102zm0 0.87316c0.414 0 0.75 0.336 0.75 0.75 0 0.413-0.336 0.75-0.75 0.75s-0.75-0.337-0.75-0.75c0-0.414 0.336-0.75 0.75-0.75zm-2e-3 2.037c2.757 0 5.002 2.244 5.002 5 0 2.757-2.245 5-5.002 5s-4.998-2.243-4.998-5c0-2.756 2.241-5 4.998-5zm2e-3 1.5c-1.93 0-3.5 1.57-3.5 3.5s1.57 3.5 3.5 3.5 3.5-1.57 3.5-3.5-1.57-3.5-3.5-3.5z" fill="#363636" fill-rule="evenodd" stroke="#363636" stroke-linecap="round" stroke-width=".179"/>
</svg>

<svg xmlns="http://www.w3.org/2000/svg" width="24" height="24">
    <path fill="#050505" fill-opacity=".7" fill-rule="evenodd" stroke="#050505" stroke-linecap="round" stroke-opacity=".7" stroke-width=".179" d="M12 4.09A7.91 7.91 0 0 0 4.09 12 7.91 7.91 0 0 0 12 19.91 7.91 7.91 0 0 0 19.91 12 7.91 7.91 0 0 0 12 4.09zm0 .873a.75.75 0 1 1 0 1.5.75.75 0 0 1 0-1.5zM11.998 7A5.008 5.008 0 0 1 17 12c0 2.757-2.245 5-5.002 5S7 14.757 7 12c0-2.756 2.241-5 4.998-5zM12 8.5c-1.93 0-3.5 1.57-3.5 3.5s1.57 3.5 3.5 3.5 3.5-1.57 3.5-3.5-1.57-3.5-3.5-3.5z"/>
</svg>
